X:113
T:My Love is gone to Sea
T:Chaidh mo leannan null thar s\`al
R:Slow Air
S:Simon Fraser Collection
N:No.201
O:Scottish
M:6/8
L:1/8
Q:3/8=120
K:A Minor
c2 G E>A z|G2E D3|E<G z A<c z|B2G E3|
c2d e2A|G2 E D3|E<G z A<cz|B2^G A3:|
C2c d2c|B2A d2e|c2d e2e|f2d e2e|c2c d2c|B2A e2g|e2G E<Ez|c2d e3|
C2G E<Az|G2E D3|E<G zA<cz|B2G E3|c2d e2A|G2E D3|E<Gz A<cz|
B2^G A3||

